packages/katcn/src/icons/svg/userEdit.svg

<svg width="24" height="25" viewBox="0 0 24 25" fill="none" xmlns="http://www.w3.org/2000/svg">
<path d="M7.89996 20.9761H5.49996C4.99996 20.9761 4.49996 20.6761 4.29996 20.2761C3.99996 19.8761 3.99996 19.4761 4.19996 18.9761C5.39996 16.1761 8.09996 14.2761 11.2 14.2761C14.3 14.2761 16.9 11.6761 16.9 8.57607C16.9 5.47607 14.3 2.97607 11.1 2.97607C7.99996 2.97607 5.39996 5.57607 5.39996 8.67607C5.39996 10.4761 6.19996 12.0761 7.49996 13.0761C5.19996 13.9761 3.19996 15.8761 2.19996 18.2761C1.79996 19.2761 1.89996 20.4761 2.49996 21.3761C3.19996 22.3761 4.19996 22.9761 5.39996 22.9761H7.79996C8.39996 22.9761 8.79996 22.5761 8.79996 21.9761C8.79996 21.3761 8.49996 20.9761 7.89996 20.9761ZM7.39996 8.67607C7.39996 6.67607 9.09996 4.97607 11.1 4.97607C13.1 4.97607 14.8 6.67607 14.8 8.67607C14.8 10.6761 13.1 12.3761 11.1 12.3761C9.09996 12.3761 7.39996 10.6761 7.39996 8.67607Z" fill="black"/>
<path d="M21.2 11.9761C20.2 10.9761 18.5 10.9761 17.5 11.9761L12.2 17.2761C11 18.4761 10.3 20.1761 10.3 21.9761C10.3 22.5761 10.7 22.9761 11.3 22.9761C13.1 22.9761 14.7 22.2761 16 21.0761L21.3 15.7761C21.8 15.2761 22.1 14.5761 22.1 13.8761C22.1 13.1761 21.7 12.4761 21.2 11.9761ZM19.8 14.3761L14.5 19.6761C13.9 20.2761 13.2 20.6761 12.4 20.8761C12.6 20.0761 13 19.3761 13.6 18.7761L18.9 13.4761C19 13.3761 19.2 13.2761 19.4 13.2761C19.6 13.2761 19.7 13.3761 19.8 13.4761C19.9 13.5761 20 13.7761 20 13.8761C20 13.9761 19.9 14.1761 19.8 14.3761Z" fill="black"/>
</svg>

<svg xmlns="http://www.w3.org/2000/svg" fill="none" viewBox="0 0 24 25"><path fill="#000" d="M7.9 20.976H5.5c-.5 0-1-.3-1.2-.7-.3-.4-.3-.8-.1-1.3 1.2-2.8 3.9-4.7 7-4.7s5.7-2.6 5.7-5.7-2.6-5.6-5.8-5.6c-3.1 0-5.7 2.6-5.7 5.7 0 1.8.8 3.4 2.1 4.4-2.3.9-4.3 2.8-5.3 5.2-.4 1-.3 2.2.3 3.1.7 1 1.7 1.6 2.9 1.6h2.4c.6 0 1-.4 1-1s-.3-1-.9-1m-.5-12.3c0-2 1.7-3.7 3.7-3.7s3.7 1.7 3.7 3.7-1.7 3.7-3.7 3.7-3.7-1.7-3.7-3.7"/><path fill="#000" d="M21.2 11.976c-1-1-2.7-1-3.7 0l-5.3 5.3c-1.2 1.2-1.9 2.9-1.9 4.7 0 .6.4 1 1 1 1.8 0 3.4-.7 4.7-1.9l5.3-5.3c.5-.5.8-1.2.8-1.9s-.4-1.4-.9-1.9m-1.4 2.4-5.3 5.3q-.9.9-2.1 1.2.3-1.2 1.2-2.1l5.3-5.3c.1-.1.3-.2.5-.2s.3.1.4.2.2.3.2.4-.1.3-.2.5"/></svg>
